Yaru++/places/32/network-workgroup.svg

<svg height="32" viewBox="0 0 8.4666664 8.4666659" width="32" xmlns="http://www.w3.org/2000/svg" xmlns:xlink="http://www.w3.org/1999/xlink"><linearGradient id="a" gradientTransform="matrix(.04026269 0 0 .04026267 .368115 .235821)" gradientUnits="userSpaceOnUse" x1="96" x2="96" y1="4.000006" y2="188"><stop offset="0" stop-color="#fff"/><stop offset=".125" stop-color="#fff" stop-opacity=".098039"/><stop offset=".92500001" stop-color="#fff" stop-opacity=".098039"/><stop offset="1" stop-color="#fff" stop-opacity=".498039"/></linearGradient><linearGradient id="b" gradientTransform="matrix(.16111112 0 0 .16111118 .226367 -39.741991)" gradientUnits="userSpaceOnUse" x1="13.735326" x2="38.099998" y1="249.69423" y2="292.76666"><stop offset="0" stop-color="#8c59d9"/><stop offset="1" stop-color="#a7a7f1"/></linearGradient><circle cx="-4.233333" cy="-4.365625" opacity=".1" r="3.968749" transform="scale(-1)"/><circle cx="4.233333" cy="4.101042" fill="url(#b)" r="3.836458"/><g fill="#fff"><path d="m5.7190289.56430649c.025109.70904621-.0472969 1.40106651-.1958525 2.07015811-1.0803995.1038674-2.1071468.2848186-3.0737146.6051311-.0547556-.8181842-.0292047-1.6806359.0501279-2.56005001a3.8364581 3.8364581 0 0 0 -.2821543.1607132c-.0658786.80559271-.0841216 1.59750911-.0366897 2.35747971-.4613672-.2890493-.9031605-.589989-1.33532024-.8914182a3.8364581 3.8364581 0 0 0 -.11730566.2413291c.4122975.2874539.8338078.574839 1.2748576.8526594-.5553577.2141776-1.08940321.4818353-1.60196989.8113209a3.8364581 3.8364581 0 0 0 .0227277.3028236c.56709466-.3793014 1.16291509-.678725 1.78852229-.9105397.0391584.4073102.0976868.8044868.1813851 1.1875267.0918184.4202244.2166144.8218884.3705199 1.2050923-.220599.0710697-.440862.1299872-.6547406.1741514-.3686783.0761233-.7167086.1142656-1.0154416.1271217a3.8364581 3.8364581 0 0 0 .1912011.2526982c.2693061-.019341.5646737-.0558191.8774668-.1204065.2291026-.0473049.4663677-.1102254.7043498-.1875843.2841255.6311741.6640539 1.2004436 1.1596185 1.6846522a3.8364581 3.8364581 0 0 0 .2067163.010345 3.8364581 3.8364581 0 0 0 .1875842-.00672c-.5696187-.4933502-.9954629-1.0943565-1.3053456-1.7771534.6791378-.2542037 1.3479065-.646639 1.8557001-1.2433352.8982604.3338274 1.8392245.5603081 2.8215324.6144339a3.8364581 3.8364581 0 0 0 .09457-.2604505c-.963676-.043524-1.8911278-.2607363-2.7801939-.5875602.2650834-.5726403.4787371-1.1736599.6309704-1.7957561.6731581-.0589915 1.3723936-.0888338 2.0913459-.107487a3.8364581 3.8364581 0 0 0 -.110072-.2614824c-.65505.018018-1.2971488.04454-1.918745.096636.1315032-.6200294.2005727-1.2597284.1886189-1.91461181a3.8364581 3.8364581 0 0 0 -.2702693-.1297093zm-.2583814 2.34249371c-.1481561.5796729-.3519673 1.1411743-.6020303 1.6784504-.7787428-.3063081-1.5261033-.6951715-2.2412059-1.1208622.8927967-.2869883 1.8412988-.4569593 2.8432362-.5575882zm-2.9734614.7901331c.7045033.4196318 1.4429844.8041692 2.2148507 1.1120754-.4651983.5147468-1.0680832.8680185-1.6882691 1.0996744-.1496907-.3713347-.2716689-.76191-.361733-1.1740885-.0730806-.3344438-.1268915-.6814793-.1648486-1.0376613z" fill-rule="evenodd" opacity=".5"/><circle cx="2.249644" cy="3.454239" r=".396875"/><circle cx="3.04274" cy="6.085417" r=".396875"/><circle cx="5.688573" cy="2.645834" r=".396875"/><circle cx="4.894824" cy="4.7625" r=".396875"/></g><circle cx="4.233333" cy="4.101042" r="3.836458" style="opacity:.4;fill:none;stroke:#000;stroke-width:.264583;stroke-linejoin:round;stroke-dashoffset:6.6"/><path d="m4.2333328.39687549c-2.0457556 0-3.70416642 1.65841351-3.70416642 3.70416651 0 2.0457529 1.65841082 3.7041664 3.70416642 3.7041664 2.0457555 0 3.7041664-1.6584135 3.7041664-3.7041664 0-2.045753-1.6584109-3.70416651-3.7041664-3.70416651zm0 .2645833a3.4395831 3.4395831 0 0 1 3.4395831 3.43958321 3.4395831 3.4395831 0 0 1 -3.4395831 3.4395831 3.4395831 3.4395831 0 0 1 -3.43958311-3.4395831 3.4395831 3.4395831 0 0 1 3.43958311-3.43958321z" fill="url(#a)"/></svg>

<?xml version="1.0" encoding="UTF-8" standalone="no"?>
<svg
   xmlns:dc="http://purl.org/dc/elements/1.1/"
   xmlns:cc="http://creativecommons.org/ns#"
   xmlns:rdf="http://www.w3.org/1999/02/22-rdf-syntax-ns#"
   xmlns:svg="http://www.w3.org/2000/svg"
   xmlns="http://www.w3.org/2000/svg"
   xmlns:xlink="http://www.w3.org/1999/xlink"
   xmlns:sodipodi="http://sodipodi.sourceforge.net/DTD/sodipodi-0.dtd"
   xmlns:inkscape="http://www.inkscape.org/namespaces/inkscape"
   height="32"
   viewBox="0 0 8.4666664 8.4666659"
   width="32"
   version="1.1"
   id="svg43"
   sodipodi:docname="network-workgroup.svg"
   inkscape:version="0.92.4 (5da689c313, 2019-01-14)">
  <metadata
     id="metadata49">
    <rdf:RDF>
      <cc:Work
         rdf:about="">
        <dc:format>image/svg+xml</dc:format>
        <dc:type
           rdf:resource="http://purl.org/dc/dcmitype/StillImage" />
      </cc:Work>
    </rdf:RDF>
  </metadata>
  <defs
     id="defs47">
    <linearGradient
       inkscape:collect="always"
       xlink:href="#linearGradient927"
       id="linearGradient8590-3"
       gradientUnits="userSpaceOnUse"
       gradientTransform="matrix(0.04026269,0,0,0.04026267,0.36811451,0.23582099)"
       x1="96"
       y1="4.0000062"
       x2="96"
       y2="188" />
    <linearGradient
       inkscape:collect="always"
       id="linearGradient927">
      <stop
         style="stop-color:#ffffff;stop-opacity:1;"
         offset="0"
         id="stop923" />
      <stop
         id="stop933"
         offset="0.125"
         style="stop-color:#ffffff;stop-opacity:0.09803922" />
      <stop
         id="stop931"
         offset="0.92500001"
         style="stop-color:#ffffff;stop-opacity:0.09803922" />
      <stop
         style="stop-color:#ffffff;stop-opacity:0.49803922"
         offset="1"
         id="stop925" />
    </linearGradient>
    <linearGradient
       inkscape:collect="always"
       xlink:href="#linearGradient4195"
       id="linearGradient8588-0"
       gradientUnits="userSpaceOnUse"
       gradientTransform="matrix(0.16111112,0,0,0.16111118,0.22636665,-39.741991)"
       x1="13.735326"
       y1="249.69423"
       x2="38.099998"
       y2="292.76666" />
    <linearGradient
       inkscape:collect="always"
       id="linearGradient4195">
      <stop
         style="stop-color:#8c59d9;stop-opacity:1"
         offset="0"
         id="stop4197" />
      <stop
         style="stop-color:#a7a7f1;stop-opacity:1"
         offset="1"
         id="stop4199" />
    </linearGradient>
  </defs>
  <sodipodi:namedview
     pagecolor="#ffffff"
     bordercolor="#666666"
     borderopacity="1"
     objecttolerance="10"
     gridtolerance="10"
     guidetolerance="10"
     inkscape:pageopacity="0"
     inkscape:pageshadow="2"
     inkscape:window-width="796"
     inkscape:window-height="480"
     id="namedview45"
     showgrid="false"
     inkscape:zoom="7.375"
     inkscape:cx="16"
     inkscape:cy="16"
     inkscape:window-x="0"
     inkscape:window-y="27"
     inkscape:window-maximized="0"
     inkscape:current-layer="svg43" />
  <linearGradient
     id="a"
     gradientTransform="matrix(.04026269 0 0 .04026259 .403531 288.80144)"
     gradientUnits="userSpaceOnUse"
     x1="96"
     x2="96"
     y1="4.000006"
     y2="188">
    <stop
       offset="0"
       stop-color="#fff"
       id="stop2" />
    <stop
       offset=".125"
       stop-color="#fff"
       stop-opacity=".098039"
       id="stop4" />
    <stop
       offset=".92500001"
       stop-color="#fff"
       stop-opacity=".098039"
       id="stop6" />
    <stop
       offset="1"
       stop-color="#fff"
       stop-opacity=".498039"
       id="stop8" />
  </linearGradient>
  <clipPath
     id="b">
    <path
       d="m341.12109 133.5c9.08109 0 10.37891 1.29458 10.37891 10.36719v8.26562c0 9.07258-1.29782 10.36719-10.37891 10.36719h-10.24218c-9.08108 0-10.37891-1.29461-10.37891-10.36719v-8.26562c0-9.07261 1.29783-10.36719 10.37891-10.36719z"
       id="path11" />
  </clipPath>
  <linearGradient
     id="c"
     gradientTransform="matrix(.16111112 0 0 .16111088 .261784 248.8237)"
     gradientUnits="userSpaceOnUse"
     x1="13.735326"
     x2="38.099998"
     y1="249.69423"
     y2="292.76666">
    <stop
       offset="0"
       stop-color="#8c59d9"
       id="stop14" />
    <stop
       offset="1"
       stop-color="#a7a7f1"
       id="stop16" />
  </linearGradient>
  <circle
     style="display:inline;opacity:0.1;fill:#000000;fill-opacity:1;stroke:none;stroke-width:0.51709551;stroke-linecap:round;stroke-linejoin:round;stroke-miterlimit:4;stroke-dasharray:none;stroke-opacity:1;enable-background:new"
     id="path9498-0-0-2"
     cx="-4.2333331"
     cy="-4.3656254"
     transform="scale(-1)"
     r="3.9687488" />
  <circle
     style="display:inline;opacity:1;fill:url(#linearGradient8588-0);fill-opacity:1;stroke:none;stroke-width:0.49461305;stroke-linecap:round;stroke-linejoin:round;stroke-miterlimit:4;stroke-dasharray:none;stroke-opacity:1;enable-background:new"
     id="path9498-6-5"
     cx="4.2333331"
     cy="4.1010418"
     r="3.8364582" />
  <path
     style="color:#000000;font-style:normal;font-variant:normal;font-weight:normal;font-stretch:normal;font-size:medium;line-height:normal;font-family:sans-serif;font-variant-ligatures:normal;font-variant-position:normal;font-variant-caps:normal;font-variant-numeric:normal;font-variant-alternates:normal;font-feature-settings:normal;text-indent:0;text-align:start;text-decoration:none;text-decoration-line:none;text-decoration-style:solid;text-decoration-color:#000000;letter-spacing:normal;word-spacing:normal;text-transform:none;writing-mode:lr-tb;direction:ltr;text-orientation:mixed;dominant-baseline:auto;baseline-shift:baseline;text-anchor:start;white-space:normal;shape-padding:0;clip-rule:nonzero;display:inline;overflow:visible;visibility:visible;opacity:0.5;isolation:auto;mix-blend-mode:normal;color-interpolation:sRGB;color-interpolation-filters:linearRGB;solid-color:#000000;solid-opacity:1;vector-effect:none;fill:#ffffff;fill-opacity:1;fill-rule:evenodd;stroke:none;stroke-width:0.26458332;stroke-linecap:butt;stroke-linejoin:miter;stroke-miterlimit:4;stroke-dasharray:none;stroke-dashoffset:0;stroke-opacity:1;color-rendering:auto;image-rendering:auto;shape-rendering:auto;text-rendering:auto;enable-background:accumulate"
     d="M 5.7190289,0.56430649 C 5.7441379,1.2733527 5.671732,1.965373 5.5231764,2.6344646 4.4427769,2.738332 3.4160296,2.9192832 2.4494618,3.2395957 2.3947062,2.4214115 2.4202571,1.5589598 2.4995897,0.67954569 A 3.8364581,3.8364581 0 0 0 2.2174354,0.84025889 C 2.1515568,1.6458516 2.1333138,2.437768 2.1807457,3.1977386 1.7193785,2.9086893 1.2775852,2.6077496 0.84542546,2.3063204 A 3.8364581,3.8364581 0 0 0 0.7281198,2.5476495 C 1.1404173,2.8351034 1.5619276,3.1224885 2.0029774,3.4003089 1.4476197,3.6144865 0.91357419,3.8821442 0.40100751,4.2116298 a 3.8364581,3.8364581 0 0 0 0.0227277,0.3028236 C 0.99082987,4.135152 1.5866503,3.8357284 2.2122575,3.6039137 2.2514159,4.0112239 2.3099443,4.4084005 2.3936426,4.7914404 2.485461,5.2116648 2.610257,5.6133288 2.7641625,5.9965327 2.5435635,6.0676024 2.3233005,6.1265199 2.1094219,6.1706841 1.7407436,6.2468074 1.3927133,6.2849497 1.0939803,6.2978058 A 3.8364581,3.8364581 0 0 0 1.2851814,6.550504 C 1.5544875,6.531163 1.8498551,6.4946849 2.1626482,6.4300975 2.3917508,6.3827926 2.6290159,6.3198721 2.866998,6.2425132 3.1511235,6.8736873 3.5310519,7.4429568 4.0266165,7.9271654 a 3.8364581,3.8364581 0 0 0 0.2067163,0.010345 3.8364581,3.8364581 0 0 0 0.1875842,-0.00672 C 3.8512983,7.4374402 3.4254541,6.8364339 3.1155714,6.153637 3.7947092,5.8994333 4.4634779,5.506998 4.9712715,4.9103018 5.8695319,5.2441292 6.810496,5.4706099 7.7928039,5.5247357 a 3.8364581,3.8364581 0 0 0 0.09457,-0.2604505 C 6.9236979,5.2207612 5.9962461,5.0035489 5.10718,4.676725 5.3722634,4.1040847 5.5859171,3.5030651 5.7381504,2.8809689 6.4113085,2.8219774 7.110544,2.7921351 7.8294963,2.7734819 A 3.8364581,3.8364581 0 0 0 7.7194243,2.5119995 c -0.65505,0.018018 -1.2971488,0.04454 -1.918745,0.096636 C 5.9321825,1.9886061 6.001252,1.3489071 5.9892982,0.69402369 A 3.8364581,3.8364581 0 0 0 5.7190289,0.56431439 Z M 5.4606475,2.9068002 C 5.3124914,3.4864731 5.1086802,4.0479745 4.8586172,4.5852506 4.0798744,4.2789425 3.3325139,3.8900791 2.6174113,3.4643884 3.510208,3.1774001 4.4587101,3.0074291 5.4606475,2.9068002 Z M 2.4871861,3.6969333 C 3.1916894,4.1165651 3.9301705,4.5011025 4.7020368,4.8090087 4.2368385,5.3237555 3.6339536,5.6770272 3.0137677,5.9086831 2.864077,5.5373484 2.7420988,5.1467731 2.6520347,4.7345946 2.5789541,4.4001508 2.5251432,4.0531153 2.4871861,3.6969333 Z"
     id="path1184"
     inkscape:connector-curvature="0" />
  <circle
     r="0.39687496"
     cy="3.4542389"
     cx="2.2496443"
     id="circle1176"
     style="display:inline;opacity:1;fill:#ffffff;fill-opacity:1;stroke:none;stroke-width:0.39687496;stroke-linecap:square;stroke-linejoin:round;stroke-miterlimit:4;stroke-dasharray:none;stroke-dashoffset:0;stroke-opacity:1;enable-background:new" />
  <circle
     style="display:inline;opacity:1;fill:#ffffff;fill-opacity:1;stroke:none;stroke-width:0.39687493;stroke-linecap:square;stroke-linejoin:round;stroke-miterlimit:4;stroke-dasharray:none;stroke-dashoffset:0;stroke-opacity:1;enable-background:new"
     id="circle1178"
     cx="3.0427403"
     cy="6.0854168"
     r="0.39687496" />
  <circle
     style="display:inline;opacity:1;fill:#ffffff;fill-opacity:1;stroke:none;stroke-width:0.39687493;stroke-linecap:square;stroke-linejoin:round;stroke-miterlimit:4;stroke-dasharray:none;stroke-dashoffset:0;stroke-opacity:1;enable-background:new"
     id="circle1217"
     cx="5.6885734"
     cy="2.6458335"
     r="0.39687496" />
  <circle
     r="0.39687496"
     cy="4.7625003"
     cx="4.8948236"
     id="circle1219"
     style="display:inline;opacity:1;fill:#ffffff;fill-opacity:1;stroke:none;stroke-width:0.39687496;stroke-linecap:square;stroke-linejoin:round;stroke-miterlimit:4;stroke-dasharray:none;stroke-dashoffset:0;stroke-opacity:1;enable-background:new" />
  <circle
     style="display:inline;opacity:0.4;vector-effect:none;fill:none;fill-opacity:1;stroke:#000000;stroke-width:0.26458332;stroke-linecap:butt;stroke-linejoin:round;stroke-miterlimit:4;stroke-dasharray:none;stroke-dashoffset:6.5999999;stroke-opacity:1;enable-background:new"
     id="path1389"
     cx="4.2333331"
     cy="4.1010418"
     r="3.8364582" />
  <path
     style="display:inline;opacity:1;fill:url(#linearGradient8590-3);fill-opacity:1;stroke:none;stroke-width:0.49461299;stroke-linecap:round;stroke-linejoin:round;stroke-miterlimit:4;stroke-dasharray:none;stroke-opacity:1;enable-background:new"
     d="m 4.2333328,0.39687549 c -2.0457556,0 -3.70416642,1.65841351 -3.70416642,3.70416651 0,2.0457529 1.65841082,3.7041664 3.70416642,3.7041664 2.0457555,0 3.7041664,-1.6584135 3.7041664,-3.7041664 0,-2.045753 -1.6584109,-3.70416651 -3.7041664,-3.70416651 z m 0,0.2645833 A 3.4395831,3.4395831 0 0 1 7.6729159,4.101042 3.4395831,3.4395831 0 0 1 4.2333328,7.5406251 3.4395831,3.4395831 0 0 1 0.79374969,4.101042 3.4395831,3.4395831 0 0 1 4.2333328,0.66145879 Z"
     id="path9498-1-6-7"
     inkscape:connector-curvature="0" />
</svg>
